viewer/src/utilities/spinnerCogniteLogo.svg

<svg fill="none" xmlns="http://www.w3.org/2000/svg" width="64" height="38" viewBox="0 0 64 38">
  <path id="reveal-spinner-top-1" fill-rule="evenodd" clip-rule="evenodd" fill="currentColor" d="M50.4542 15.3288c-28.2275 5.9674-28.7378 6.0661-29.2355 6.1624h-.0001c-1.3944.2698-2.6891.5203-3.9772.7036v-6.3583c-.0652-1.475-1.2799-2.6372-2.7563-2.6372s-2.6911 1.1622-2.7563 2.6372v7.1072z"/>
  <path id="reveal-spinner-top-2" fill-rule="evenodd" clip-rule="evenodd" fill="currentColor" d="M50.4542 15.3288c-16.8452 3.375-17.0189 3.4183-17.1711 3.506-1.7276.3694-3.3435.7389-4.9594 1.1083l-.0571.013V7.6106c-.0465-1.48876-1.2668-2.67155-2.7563-2.67155S22.8005 6.12184 22.754 7.6106v13.5866z"/>
  <path id="reveal-spinner-top-3" fill-rule="evenodd" clip-rule="evenodd" fill="currentColor" d="M50.4542 15.3288c-7.274 1.2593-9.1537 1.6344-11.0347 2.0095V2.74337c-.0338-1.54541-1.3116-2.7721267-2.8571-2.74285692h-.0134C35.0327.00556379 33.8015 1.2272 33.7846 2.74337V18.7098z"/>
  <path id="reveal-spinner-top-4" fill-rule="evenodd" clip-rule="evenodd" fill="currentColor" d="M50.4542 15.3288v-3.2274c0-1.5594-1.2642-2.82358-2.8236-2.82358s-2.8235 1.26418-2.8235 2.82358v4.4z"/>
  <path id="reveal-spinner-center" fill-rule="evenodd" clip-rule="evenodd" fill="currentColor" d="M50.4542 15.3288C5.46324 23.6926 1.83164 23.4439 1.45248 22.3172c-.773329-1.6548 3.63593-3.8942 5.79662-4.9915.28489-.1447.53068-.2695.72036-.3706v-.1237h-.12505c-1.62823.6226-8.646718 3.4958-7.768735 5.9832.875294 2.7456 11.653125 3.4958 34.086725-1.9939 18.7926-4.6145 27.4393-5.4925 28.3173-3.7446.6266 1.4952-4.0121 4.3644-8.5217 6.3597-.0966.0984-.1427.2357-.125.3724l.002.002c.1243.1244.2474.2475.3745.1231 1.6268-.6266 10.1499-4.238 9.7721-7.2323-.3738-1.9935-4.8842-2.6175-13.5274-1.3722z"/>
  <path id="reveal-spinner-bot-1" fill-rule="evenodd" clip-rule="evenodd" fill="currentColor" d="M11.7557 30.5551v-2.0894c1.8291-.1048 3.6511-.3108 5.4575-.6171v2.7065c-.033 1.4835-1.245 2.6689-2.7288 2.6689s-2.6958-1.1854-2.7287-2.6689z"/>
  <path id="reveal-spinner-bot-2" fill-rule="evenodd" clip-rule="evenodd" fill="currentColor" d="M22.7715 26.9222v7.602c-.0132 1.496 1.1804 2.7238 2.6762 2.7529 1.4957.0291 2.7362-1.1513 2.7813-2.6467v-8.8309c-1.7953.4821-3.6177.857-5.4575 1.1227z"/>
  <path id="reveal-spinner-bot-3" fill-rule="evenodd" clip-rule="evenodd" fill="currentColor" d="M33.87 24.7193h-.3764v5.3419c.066 1.5151 1.3136 2.7095 2.8302 2.7095s2.7642-1.1944 2.8303-2.7095v-6.5883c-.3876.0886-.7821.1771-1.1838.2671l-.0007.0002c-1.2926.2897-2.6585.5959-4.0996.9764v.0027z"/>
  <path id="reveal-spinner-bot-4" fill-rule="evenodd" clip-rule="evenodd" fill="currentColor" d="M44.5094 22.2377c2.1383-.3726 4.0242-.7438 5.6578-1.1137v4.3375c-.0249 1.5094-1.2534 2.7212-2.763 2.7254h-.0162c-.7432.0206-1.4641-.255-2.004-.7662-.54-.5112-.8546-1.216-.8746-1.9592v-3.2238z"/>
</svg>

<svg id="logo" width="64" height="38" viewBox="0 0 64 38" fill="none"
     xmlns="http://www.w3.org/2000/svg">

  <!--  top-->

  <path id="top-4" fill-rule="evenodd" clip-rule="evenodd" fill="currentColor"
        d="M50.4542 15.3288
        V12.1014
        C50.4542 10.542 49.19 9.27782 47.6306 9.27782
        C46.0712 9.27782 44.8071 10.542 44.8071 12.1014
        V16.2143
        Z"
  ></path>

  <path id="top-3" fill-rule="evenodd" clip-rule="evenodd" fill="currentColor"
        d="
        M50.4542 15.3288
        C43.1802 16.5881 41.3005 16.9632 39.4195 17.3383
        V2.74337
        C39.3857 1.19796 38.1079 -0.0287567 36.5624 0.000513075
        H36.549
        C35.0327 0.00556379 33.8015 1.2272 33.7846 2.74337
        V18.7098
        Z"
  ></path>

  <path id="top-2" fill-rule="evenodd" clip-rule="evenodd" fill="currentColor"
        d="M50.4542 15.3288
        C33.609 18.7038 33.4353 18.7471 33.2831 18.8348
        C31.5555 19.2042 29.9396 19.5737 28.3237 19.9431
        L28.2666 19.9561
        V7.6106
        C28.2201 6.12184 26.9998 4.93905 25.5103 4.93905
        C24.0208 4.93905 22.8005 6.12184 22.754 7.6106
        V21.1972
        Z"
  ></path>

  <path id="top-1" fill-rule="evenodd" clip-rule="evenodd" fill="currentColor"
        d="M50.4542 15.3288
                C22.2267 21.2962 21.7164 21.3949 21.2187 21.4912
        L21.2187 21.4912
        L21.2187 21.4912
        L21.2186 21.4912
        C19.8242 21.761 18.5295 22.0115 17.2414 22.1948
        V15.8365
        C17.1762 14.3615 15.9615 13.1993 14.4851 13.1993
        C13.0087 13.1993 11.794 14.3615 11.7288 15.8365
        V22.9437
        Z"
  ></path>

  <!--center-->

  <path id="center" fill-rule="evenodd" clip-rule="evenodd" fill="currentColor"
        d="M50.4542 15.3288
                C5.46324 23.6926 1.83164 23.4439 1.45248 22.3172
        C0.679151 20.6624 5.08841 18.423 7.2491 17.3257
        C7.53399 17.181 7.77978 17.0562 7.96946 16.9551
        V16.8314
        H7.84441
        C6.21618 17.454 -0.802308 20.3272 0.075675 22.8146
        C0.950969 25.5602 11.7288 26.3104 34.1624 20.8207
        C52.955 16.2062 61.6017 15.3282 62.4797 17.0761
        C63.1063 18.5713 58.4676 21.4405 53.958 23.4358
        C53.8614 23.5342 53.8153 23.6715 53.833 23.8082
        L53.835 23.8102
        C53.9593 23.9346 54.0824 24.0577 54.2095 23.9333
        C55.8363 23.3067 64.3594 19.6953 63.9816 16.701
        C63.6078 14.7075 59.0974 14.0835 50.4542 15.3288
        Z"
  ></path>

  <!--  bottom-->

  <path id="bot-1" fill-rule="evenodd" clip-rule="evenodd" fill="currentColor"
        d="M11.7557 30.5551V28.4657C13.5848 28.3609 15.4068 28.1549 17.2132 27.8486V30.5551C17.1802 32.0386 15.9682 33.224 14.4844 33.224C13.0006 33.224 11.7886 32.0386 11.7557 30.5551Z"
  ></path>

  <path id="bot-2" fill-rule="evenodd" clip-rule="evenodd" fill="currentColor"
        d="M22.7715 26.9222V34.5242C22.7583 36.0202 23.9519 37.248 25.4477 37.2771C26.9434 37.3062 28.1839 36.1258 28.229 34.6304V25.7995C26.4337 26.2816 24.6113 26.6565 22.7715 26.9222Z"
  ></path>

  <path id="bot-3" fill-rule="evenodd" clip-rule="evenodd" fill="currentColor"
        d="M33.87 24.7193H33.4936V30.0612C33.5596 31.5763 34.8072 32.7707 36.3238 32.7707C37.8404 32.7707 39.088 31.5763 39.1541 30.0612V23.4729C38.7665 23.5615 38.372 23.65 37.9703 23.74L37.9696 23.7402C36.677 24.0299 35.3111 24.3361 33.87 24.7166V24.7193Z"
  ></path>

  <path id="bot-4" fill-rule="evenodd" clip-rule="evenodd" fill="currentColor"
        d="M44.5094 22.2377C46.6477 21.8651 48.5336 21.4939 50.1672 21.124V25.4615C50.1423 26.9709 48.9138 28.1827 47.4042 28.1869H47.388C46.6448 28.2075 45.9239 27.9319 45.384 27.4207C44.844 26.9095 44.5294 26.2047 44.5094 25.4615V22.2377Z"
  ></path>
</svg>
